svg/notificationFill.svg

<svg width="280" height="280" viewBox="0 0 280 280" fill="none" xmlns="http://www.w3.org/2000/svg">
<path d="M206.753 100.05C209.039 108.837 209.639 114.07 210.815 129.906C210.983 132.172 211.113 133.708 211.258 135.084C213.563 156.833 215.691 165.686 220.662 174.935C225.28 183.526 227.976 188.892 230.138 194.323C231.679 198.194 232.587 201.344 232.753 203.897C233.047 208.4 230.807 212.085 226.03 212.085H53.8394C49.0626 212.085 46.8228 208.4 47.1162 203.897C47.2825 201.344 48.1903 198.194 49.7314 194.323C51.8937 188.892 54.5896 183.526 59.2073 174.935C64.1784 165.686 66.3061 156.833 68.6111 135.084C68.757 133.708 68.8865 132.172 69.0548 129.906C70.2308 114.07 70.8302 108.837 73.1164 100.05C79.8765 74.0679 96.5585 57.5581 127.61 53.7442C130.84 53.2009 134.385 52.9284 138.255 52.9284C138.819 52.9284 139.378 52.932 139.935 52.9391C140.491 52.932 141.051 52.9284 141.614 52.9284C145.484 52.9284 149.03 53.2009 152.26 53.7442C183.311 57.5581 199.993 74.0679 206.753 100.05Z" fill="black"/>
<path fill-rule="evenodd" clip-rule="evenodd" d="M123.811 54.1864C125.194 46.1602 132.19 40.0542 140.611 40.0542C149.113 40.0542 156.162 46.2784 157.449 54.4189C155.842 54.1374 154.185 53.8918 152.477 53.6838C149.302 53.1428 145.734 52.8568 141.739 52.8568C141.133 52.8568 140.531 52.8608 139.935 52.8687C139.338 52.8608 138.737 52.8568 138.131 52.8568C134.136 52.8568 130.568 53.1428 127.392 53.6838C126.173 53.8324 124.979 54.0001 123.811 54.1864Z" fill="black"/>
<path fill-rule="evenodd" clip-rule="evenodd" d="M164.283 220.715C163.289 231.743 154.021 240.385 142.733 240.385C131.446 240.385 122.178 231.743 121.184 220.715H164.283Z" fill="black"/>
</svg>

<svg width="280" height="280" viewBox="0 0 280 280" xmlns="http://www.w3.org/2000/svg">
    <g fill="#000" fill-rule="evenodd">
        <path d="M206.753 100.05c2.286 8.787 2.886 14.02 4.062 29.856.168 2.266.298 3.802.443 5.178 2.305 21.75 4.433 30.602 9.404 39.85 4.618 8.592 7.314 13.958 9.476 19.389 1.541 3.87 2.45 7.021 2.615 9.574.294 4.503-1.946 8.188-6.723 8.188H53.84c-4.777 0-7.017-3.685-6.724-8.188.166-2.553 1.074-5.703 2.615-9.574 2.163-5.431 4.859-10.797 9.476-19.388 4.971-9.25 7.1-18.102 9.404-39.85.146-1.377.276-2.913.444-5.179 1.176-15.836 1.775-21.07 4.061-29.856 6.76-25.982 23.443-42.492 54.494-46.306 3.23-.543 6.775-.816 10.645-.816.564 0 1.123.004 1.68.011.556-.007 1.116-.01 1.68-.01 3.87 0 7.415.272 10.645.815 31.051 3.814 47.733 20.324 54.493 46.306z" fill-rule="nonzero"/>
        <path d="M123.811 54.186c1.383-8.026 8.379-14.132 16.8-14.132 8.502 0 15.55 6.224 16.838 14.365a96.262 96.262 0 0 0-4.972-.735c-3.175-.541-6.743-.827-10.738-.827-.606 0-1.208.004-1.804.012-.597-.008-1.198-.012-1.804-.012-3.995 0-7.563.286-10.738.827-1.22.148-2.414.316-3.582.502zM164.283 220.715c-.994 11.028-10.262 19.67-21.55 19.67-11.287 0-20.555-8.642-21.55-19.67h43.1z"/>
    </g>
</svg>
